!!!COM:	Bach, Johann Sebastian
!!!OMV:	O Gott, du frommer Gott
!!!OTL:	O Gott, du frommer Gott
**kern	**fb	**kern	**kern	**kern	**kern
*part5	*part5	*part4	*part3	*part2	*part1
*staff5	*	*staff4	*staff3	*staff2	*staff1
*I"Continuo	*	*I"Voice	*I"Voice	*I"Voice	*I"Voice
*I'Cont.	*	*I'V	*I'V	*I'V	*I'V
*clefF4	*	*clefF4	*clefGv2	*clefG2	*clefG2
*Trd0c0	*	*	*	*	*
*k[b-]	*	*k[b-]	*k[b-]	*k[b-]	*k[b-]
*M4/4	*	*M4/4	*M4/4	*M4/4	*M4/4
4D	.	4D	4d	4f	4a
=2	=2	=2	=2	=2	=2
4C#X	6	4C#X	4A	4e	8aL
.	.	.	.	.	8gJ
4D	.	4D	4A	8eL	4f
.	.	.	.	8dJ	.
4E	#6\	4E	4G	8c#XL	4g
.	.	.	.	16dL	.
.	.	.	.	16eJJ	.
4F	6	4F	4d	4A	8aL
.	.	.	.	.	8gJ
=3	=3	=3	=3	=3	=3
4G	7	4G	4d	8B-	4f
.	.	.	.	4d	.
4A	4	4A	8AL	.	4e
.	#	.	8GJ	8c#X	.
4D;	.	4D;	4F;	4A;	4d;
4D	.	4D	4d	4f	4a
=4	=4	=4	=4	=4	=4
4C	6	4C	4A	4e	4a
4BB-	6	4BB-	4B-	4d	4g
8AAL	5	8AAL	4.c	4e	4cc
8CJ	.	8CJ	.	.	.
4F	.	4F	.	8fL	8aL
.	.	.	8c#X	8eJ	8gJ
=5	=5	=5	=5	=5	=5
8B-L	5	8B-L	8dL	8dL	4f
8AJ	6 4	8AJ	8c#XJ	8f	.
4B-	3	4B-	4d	8e	4g
.	.	.	.	8dJ	.
4A;	#	4A;	4c#;	4e;	4a;
8AL	n	8AL	4cn	4e	8aL
8GJ	.	8GJ	.	.	8bnJ
=6	=6	=6	=6	=6	=6
!!linebreak:original
4.F	.	4.F	8cL	4a	4cc
.	.	.	8AJ	.	.
.	.	.	8BnL	4g	8ddL
8E	#6\	8E	8c#XJ	.	8eeJ
4D	.	4D	8dL	8fL	4ff
.	.	.	8cnJ	8a	.
4G	6	4G	4B-X	8g	4ee
.	.	.	.	8eJ	.
=7	=7	=7	=7	=7	=7
4G#X	7 5 n	4G#X	4Bn	8fL	4dd
.	.	.	.	8eJ	.
4A	#	4A	4A	4e	4cc#X
4D;	#	4D;	4A;	4f#X;	4dd;
4Gn	7 n	4Gn	4B	8gL	4dd
.	.	.	.	8fnJ	.
=8	=8	=8	=8	=8	=8
4C	nr7	4C	8BnL	4e	4ee
.	6	.	8AJ	.	.
4BBn	7	4BBn	8AL	4bn	4dd
.	6	.	8G#XJ	.	.
4AA	.	4AA	4.A	4e	4ccn
8DL	nr6 5	8DL	.	8fL	4bn
8EJ	#	8EJ	8G#	8eJ	.
=9	=9	=9	=9	=9	=9
4F	7	4F	4A	8eL	4a
.	6	.	.	8dJ	.
4E	#	4E	4Bn	4e	4g#X
4AA;	.	4AA;	4c;	4e;	4a;
8GL	n	8GL	4B	4g	4dd
8FJ	.	8FJ	.	.	.
=10	=10	=10	=10	=10	=10
!!pagebreak:original
4E	6	4E	8cL	8gL	4cc
.	.	.	8AJ	16fL	.
.	.	.	.	16eJJ	.
4D	nr6	4D	8GL	4f	4bn
.	.	.	8FJ	.	.
4C	.	4C	4G	4e	8ccL
.	.	.	.	.	8b-XJ
8DL	.	8DL	4d	4f	4a
8CJ	.	8CJ	.	.	.
=11	=11	=11	=11	=11	=11
4BB-	7 5	4BB-	4d	4.f	4a
4C	4	4C	8GL	.	4g
.	3	.	8cJ	8e	.
4F;	.	4F;	4A;	4c;	4f;
4F#X	6	4F#X	4A	4d	4a
=12	=12	=12	=12	=12	=12
4G	.	4G	8GL	4d	4b-
.	.	.	8FJ	.	.
4C#X	6	4C#X	4E	4e	8aL
.	5	.	.	.	8gJ
8DL	.	8DL	4A	8eL	4f
8Cn	.	8Cn	.	8AJ	.
8BB-	6	8BB-	4B-	4d	4g
8AAJ	.	8AAJ	.	.	.
=13	=13	=13	=13	=13	=13
4GG#X	7 5	4GG#X	4Bn	4.d	4f
4AA	#	4AA	8EL	.	4e
.	.	.	8AJ	8c#X	.
4DD;	#	4D;	4F#X;	4A;	4d;
=||	=||	=||	=||	=||	=||
*-	*-	*-	*-	*-	*-
!!!system-decoration: s1,s2,s3,s4,s5
